_icons/SVG/438-bonsly.svg

<svg xmlns="http://www.w3.org/2000/svg" width="32" height="32"><path fill="#6CD275" d="M16 0a4 4 0 000 8V0z"/><path fill="#60C46F" d="M20 4a4 4 0 00-4-4v8a4 4 0 004-4zm-4 2c-1.619 0-3.044-.626-3.958-1.581C12.254 6.428 13.934 8 16 8V6z"/><path fill="#54B668" d="M19.958 4.419C19.044 5.374 17.619 6 16 6v2c2.066 0 3.746-1.572 3.958-3.581z"/><circle fill="#6CD275" cx="10" cy="10" r="4"/><path fill="#60C46F" d="M10 12c-1.619 0-3.044-.626-3.958-1.581C6.254 12.428 7.934 14 10 14s3.746-1.572 3.958-3.581C13.044 11.374 11.619 12 10 12z"/><circle fill="#60C46F" cx="22" cy="10" r="4"/><path fill="#54B668" d="M22 12c-1.619 0-3.044-.626-3.958-1.581C18.254 12.428 19.934 14 22 14s3.746-1.572 3.958-3.581C25.044 11.374 23.619 12 22 12z"/><path fill="#CDA073" d="M16 7h-.164a.836.836 0 00-.836.836v.328a.836.836 0 01-.836.836h-.328a.836.836 0 00-.836.836v.328c0 .462.374.836.836.836.563 0 .987.552.801 1.083a6.158 6.158 0 01-1.606 2.466C10.756 16.679 8 19.728 8 22h8V7z"/><path fill="#C09265" d="M16.164 7H16v15h8c0-2.272-2.756-5.321-5.031-7.451a6.186 6.186 0 01-1.606-2.466c-.186-.531.239-1.083.801-1.083a.836.836 0 00.836-.836v-.328A.836.836 0 0018.164 9h-.328A.836.836 0 0117 8.164v-.328A.836.836 0 0016.164 7z"/><path fill="#A7794C" d="M13 30h-2c0-1.384 1.045-4 5-4v2c-2.966 0-3 1.918-3 2z"/><path fill="#9E6E43" d="M19 30.014c-.01-.336-.2-2.014-3-2.014v-2c3.955 0 5 2.616 5 4h-2 1l-1 .014z"/><path fill="#A7794C" d="M16 29c3.623 0 6.68-2.109 7.664-5H16v5z"/><path fill="#B38658" d="M16 24H8.336c.984 2.891 4.041 5 7.664 5v-5z"/><ellipse fill="#FFE28A" cx="13.5" cy="19" rx="1.5" ry="2"/><ellipse fill="#373F3F" cx="13.5" cy="19" rx=".5" ry="1"/><ellipse fill="#FFD96C" cx="18.5" cy="19" rx="1.5" ry="2"/><ellipse fill="#2B3332" cx="18.5" cy="19" rx=".5" ry="1"/><path fill="#C09265" d="M16 22H8a1 1 0 00-1 1v2a1 1 0 001 1h8v-4z"/><path fill="#B38658" d="M24 22h-8v4h8a1 1 0 001-1v-2a1 1 0 00-1-1z"/><path fill="#FFE28A" d="M16 14c-.552 0-1 .672-1 1.5s.448 1.5 1 1.5v-3z"/><path fill="#FFD96C" d="M17 15.5c0-.828-.448-1.5-1-1.5v3c.552 0 1-.672 1-1.5z"/><path fill="#B38658" d="M13.5 31.495a2.513 2.513 0 00-2.265-2.484A2.5 2.5 0 008.5 31.5v.005a.507.507 0 00.512.495h3.974a.51.51 0 00.514-.505z"/><path fill="#A7794C" d="M23.5 31.495a2.513 2.513 0 00-2.265-2.484A2.5 2.5 0 0018.5 31.5v.005a.507.507 0 00.512.495h3.974a.51.51 0 00.514-.505z"/></svg>

<?xml version="1.0" encoding="utf-8"?>
<!-- Generator: Adobe Illustrator 23.0.6, SVG Export Plug-In . SVG Version: 6.00 Build 0)  -->
<svg version="1.1" xmlns="http://www.w3.org/2000/svg" xmlns:xlink="http://www.w3.org/1999/xlink" x="0px" y="0px" width="32px"
	 height="32px" viewBox="0 0 32 32" enable-background="new 0 0 32 32" xml:space="preserve">
<g id="labels">
</g>
<g id="icons">
	<g>
		<path fill="#6CD275" d="M16,0c-2.209,0-4,1.791-4,4c0,2.209,1.791,4,4,4V0z"/>
		<path fill="#60C46F" d="M20,4c0-2.209-1.791-4-4-4v8C18.209,8,20,6.209,20,4z"/>
		<path fill="#60C46F" d="M16,6c-1.619,0-3.044-0.626-3.958-1.581C12.254,6.428,13.934,8,16,8V6z"/>
		<path fill="#54B668" d="M19.958,4.419C19.044,5.374,17.619,6,16,6v2C18.066,8,19.746,6.428,19.958,4.419z"/>
		<circle fill="#6CD275" cx="10" cy="10" r="4"/>
		<path fill="#60C46F" d="M10,12c-1.619,0-3.044-0.626-3.958-1.581C6.254,12.428,7.934,14,10,14s3.746-1.572,3.958-3.581
			C13.044,11.374,11.619,12,10,12z"/>
		<circle fill="#60C46F" cx="22" cy="10" r="4"/>
		<path fill="#54B668" d="M22,12c-1.619,0-3.044-0.626-3.958-1.581C18.254,12.428,19.934,14,22,14s3.746-1.572,3.958-3.581
			C25.044,11.374,23.619,12,22,12z"/>
		<path fill="#CDA073" d="M16,7h-0.164C15.374,7,15,7.374,15,7.836v0.328C15,8.626,14.626,9,14.164,9h-0.328
			C13.374,9,13,9.374,13,9.836v0.328C13,10.626,13.374,11,13.836,11c0.563,0,0.987,0.552,0.801,1.083
			c-0.326,0.93-0.87,1.778-1.606,2.466C10.756,16.679,8,19.728,8,22h8V7z"/>
		<path fill="#C09265" d="M16.164,7H16v15h8c0-2.272-2.756-5.321-5.031-7.451c-0.735-0.688-1.279-1.537-1.606-2.466
			C17.177,11.552,17.602,11,18.164,11C18.626,11,19,10.626,19,10.164V9.836C19,9.374,18.626,9,18.164,9h-0.328
			C17.374,9,17,8.626,17,8.164V7.836C17,7.374,16.626,7,16.164,7z"/>
		<path fill="#A7794C" d="M13,30h-2c0-1.384,1.045-4,5-4v2C13.034,28,13,29.918,13,30z"/>
		<path fill="#9E6E43" d="M19,30.014C18.99,29.678,18.8,28,16,28v-2c3.955,0,5,2.616,5,4h-2h1L19,30.014z"/>
		<path fill="#A7794C" d="M16,29c3.623,0,6.68-2.109,7.664-5H16V29z"/>
		<path fill="#B38658" d="M16,24H8.336c0.984,2.891,4.041,5,7.664,5V24z"/>
		<ellipse fill="#FFE28A" cx="13.5" cy="19" rx="1.5" ry="2"/>
		<ellipse fill="#373F3F" cx="13.5" cy="19" rx="0.5" ry="1"/>
		<ellipse fill="#FFD96C" cx="18.5" cy="19" rx="1.5" ry="2"/>
		<ellipse fill="#2B3332" cx="18.5" cy="19" rx="0.5" ry="1"/>
		<path fill="#C09265" d="M16,22H8c-0.552,0-1,0.448-1,1v2c0,0.552,0.448,1,1,1h8V22z"/>
		<path fill="#B38658" d="M24,22h-8v4h8c0.552,0,1-0.448,1-1v-2C25,22.448,24.552,22,24,22z"/>
		<path fill="#FFE28A" d="M16,14c-0.552,0-1,0.672-1,1.5s0.448,1.5,1,1.5V14z"/>
		<path fill="#FFD96C" d="M17,15.5c0-0.828-0.448-1.5-1-1.5v3C16.552,17,17,16.328,17,15.5z"/>
		<path fill="#B38658" d="M13.5,31.495c0-0.15-0.014-0.302-0.043-0.457c-0.2-1.084-1.124-1.927-2.222-2.027
			C9.749,28.875,8.5,30.041,8.5,31.5c0,0.002,0,0.003,0,0.005C8.501,31.781,8.736,32,9.012,32h3.974
			C13.266,32,13.501,31.775,13.5,31.495z"/>
		<path fill="#A7794C" d="M23.5,31.495c0-0.15-0.014-0.302-0.043-0.457c-0.2-1.084-1.124-1.927-2.222-2.027
			C19.749,28.875,18.5,30.041,18.5,31.5c0,0.002,0,0.003,0,0.005C18.501,31.781,18.736,32,19.012,32h3.974
			C23.266,32,23.501,31.775,23.5,31.495z"/>
	</g>
</g>
</svg>
